X:15
T:Constant Billy, Bampton
S:CJS
A:Bampton
M:6/8
Q:1/4=128
P:A(AB2)4
K:Bb
P:A
|:F|B2f  d>Bd|e2c c>Bc|d>cB G>AB|FGA B2:|
P:B
d>ef g>ab|c>de fdB|d>ef g>ab|c>de f3|
